!!!COM: Machaut, Guillaume
!!!CDT: ~1300///-1377///
!!!OTL: Kyrie
!!!ODT: ~1360///
!!!OPN: Messe de Nostre Dame
!!!ONB: Earliest example of a complete Mass Ordinary.
!! isorhythmic
!! tenor from Kyrie of chant Mass IV
!! Dorian mode on D
**kern	**kern	**kern	**kern
*Ivox	*Ivox	*Ivox	*Ivox
*M3/2	*M3/2	*M3/2	*M3/2
*MM144	*MM144	*MM144	*MM144
=1-	=1-	=1-	=1-
1.a	1.d	1.A	1.D
=2	=2	=2	=2
2a	2e	2A	2r
2b	2B	1G	1E
2a	2c	.	.
=3	=3	=3	=3
1a	1.d	1.A	2D
.	.	.	1F
4f	.	.	.
4e	.	.	.
=4	=4	=4	=4
2d	2c	1.r	4G
.	.	.	4F
2e	1B	.	2E
2f#	.	.	2D
=5	=5	=5	=5
1g	2c	1.c	1C
.	2G	.	.
2f	2A	.	2F
=6	=6	=6	=6
2e	4e	2B	2E
.	4d	.	.
1a	1c#	1A	1F#
=7	=7	=7	=7
1.g	2d	1.G	1.G
.	1e	.	.
=8	=8	=8	=8
4e	2A	1.r	4A
2d	.	.	4G
.	1c	.	2F
2f	.	.	.
.	.	.	2E
4g	.	.	.
=9	=9	=9	=9
1a	2d	1.A	1.D
.	1f	.	.
2d	.	.	.
=10	=10	=10	=10
4r	2e	2A	2r
4a	.	.	.
4r	2r	1G	1B
4b	.	.	.
4r	2e	.	.
4b	.	.	.
=11	=11	=11	=11
4cc	2f	1.F	2r
2a	.	.	.
.	2r	.	2c
2g	.	.	.
.	2a	.	2A
4f	.	.	.
=12	=12	=12	=12
2g	4d	1.r	2G
.	4e	.	.
1a	2f	.	1F
.	2e	.	.
=13	=13	=13	=13
1.d	2d	1.D	1.A
.	1f	.	.
=14	=14	=14	=14
1.r	1.e	2E	2r
.	.	1E	1B
=15	=15	=15	=15
1.g	2d	1.G	2B
.	1e	.	1C
=16	=16	=16	=16
4a	2d	1.r	4A
4b	.	.	4G
2a	2A	.	2F
2g#	2c#	.	2E
=17	=17	=17	=17
1.a	2d	1.A	1D
.	2f	.	.
.	2e	.	2c#
=18	=18	=18	=18
2f	2d	2D	4d
.	.	.	4c
1e	1c#	1E	2B
.	.	.	2A
=19	=19	=19	=19
4g	2d	1.G	1.G
4a	.	.	.
1b	1e	.	.
=20	=20	=20	=20
4a	2A	1.r	2A
2e	.	.	.
.	2B	.	2G
2d	.	.	.
.	2c	.	2F
4f	.	.	.
=21	=21	=21	=21
1e	1.B	1.G	1.E
2g	.	.	.
=22	=22	=22	=22
4r	2A	2F	2r
4c	.	.	.
4r	2r	1E	1c#
4e	.	.	.
4r	2e	.	.
4g	.	.	.
=23	=23	=23	=23
4a	2d	1.D	2r
2f	.	.	.
.	2r	.	2d
2a	.	.	.
.	2d	.	2A
4d	.	.	.
=24	=24	=24	=24
2e	2B	1.r	2G
1f	4d	.	1D
.	4c	.	.
.	4B	.	.
.	4A	.	.
=25	=25	=25	=25
4g	2e	1.E	1.C#
4f	.	.	.
4e	1c#	.	.
4d	.	.	.
2e	.	.	.
=26	=26	=26	=26
4f	2d	2F	2r
4g	.	.	.
2a	1c#	1E	1G#
2g#	.	.	.
=27	=27	=27	=27
1.a	1.d	1.D	1.A
=28	=28	=28	=28
1.a	1.d	1.A	1.D
=29	=29	=29	=29
8b-	2c	2A	2F
8a	.	.	.
8g	.	.	.
8f	.	.	.
2e	1B	1G	2G
2g	.	.	2E
=30	=30	=30	=30
8r	4A	2A	2r
4e	.	.	.
.	2e	.	.
8d	.	.	.
4.e	.	1r	1D
.	4d	.	.
8a	.	.	.
8d	8b-	.	.
8f	8a	.	.
8e	8g	.	.
8d	8f	.	.
=31	=31	=31	=31
8r	4e	[1.G	2r
4c#	.	.	.
.	2B	.	.
8d	.	.	.
4.e	.	.	1E
.	4d	.	.
8d	.	.	.
8e	8c	.	.
8f#	4B	.	.
8g	.	.	.
8f#	8A	.	.
=32	=32	=32	=32
1.g	1.e	1.G]	1.C
=33	=33	=33	=33
4g	2d	2G	2B
8f	.	.	.
8g	.	.	.
2a	2f	1F	2c
8b-	2e	.	2A
8a	.	.	.
8g	.	.	.
8f	.	.	.
=34	=34	=34	=34
4e	4r	2G	2r
4r	2d	.	.
8g	.	1r	1G
4d	.	.	.
.	2B	.	.
4e	.	.	.
8d	.	.	.
8e	4A	.	.
8f	.	.	.
=35	=35	=35	=35
1.g	2c	1.G	1.C
.	1e	.	.
=36	=36	=36	=36
2a	2d	2A	2D
4a	1c	1F	2F
8g	.	.	.
8a	.	.	.
2f	.	.	2A
=37	=37	=37	=37
8r	4d	2G	2r
4g	.	.	.
.	2e	.	.
8b	.	.	.
4.g	.	1r	1G
.	4d	.	.
8g	.	.	.
8d	8b-	.	.
8e	8a	.	.
8f	8g	.	.
8g	8f	.	.
=38	=38	=38	=38
8r	4e	[1.A	2r
4a	.	.	.
.	2d	.	.
8g	.	.	.
4.a	.	.	1D
.	4a	.	.
8d	.	.	.
8d	8b-	.	.
8e	8a	.	.
8f	8g	.	.
8g	8f	.	.
=39	=39	=39	=39
1.a	1.e	1.A]	1.c#
=40	=40	=40	=40
2e	2g	2E	2c#
2a	2f	1D	2d
8b-	4a	.	2A
8a	.	.	.
8g	4d	.	.
8f	.	.	.
=41	=41	=41	=41
4e	4r	2E	2r
4r	2e	.	.
8g	.	1r	1G
4d	.	.	.
.	2d	.	.
4e	.	.	.
8d	.	.	.
8e	4B	.	.
8d	.	.	.
=42	=42	=42	=42
1.c	2c	1.G	1.C
.	1e	.	.
=43	=43	=43	=43
2g	2d	2G	2B
2a	2f	1F	2c
4d	8g	.	2A
.	8f	.	.
8c	8e	.	.
8d	8d	.	.
=44	=44	=44	=44
8r	4c	2E	2r
4e	.	.	.
.	2e	.	.
8c	.	.	.
4.g	.	1r	1G
.	4d	.	.
8a	.	.	.
8d	8e	.	.
8f	8d	.	.
8e	8c	.	.
8g	8B	.	.
=45	=45	=45	=45
8r	4A	[1.D	2r
4a	.	.	.
.	2d	.	.
8d	.	.	.
4.a	.	.	1A
.	4e	.	.
8e	.	.	.
8d	4d	.	.
8e	.	.	.
8f	8c	.	.
8g	8B	.	.
=46	=46	=46	=46
1.a	1.A	1.D]	1.F
=47	=47	=47	=47
4e	2e	2E	2G
8d	.	.	.
8e	.	.	.
2f	2A	1F	2c
8cc	4c	.	2A
8b	.	.	.
8cc	4d	.	.
8a	.	.	.
=48	=48	=48	=48
4b	4r	2E	2r
4r	2e	.	.
8g	.	1r	1G
4d	.	.	.
.	2d	.	.
4e	.	.	.
8g	.	.	.
8f	4c#	.	.
8g	.	.	.
=49	=49	=49	=49
1.a	1.d	1.D	1.A
=50	=50	=50	=50
1.a	1.d	1.D	1.A
=51	=51	=51	=51
4d	2B	1.r	2G
4e	.	.	.
2f	8c	.	2F
.	4B	.	.
.	8A	.	.
8a	2c#	.	2E
4g	.	.	.
8f	.	.	.
=52	=52	=52	=52
1.a	2d	2A	2D
.	2e	1A	1c#
.	2f#	.	.
=53	=53	=53	=53
1.b	1.g	1.G	1.d
=54	=54	=54	=54
2a	2a	1.A	1.D
2d	1f	.	.
8e	.	.	.
8d	.	.	.
8c	.	.	.
8d	.	.	.
=55	=55	=55	=55
4e	4r	2B	2C
4r	4g	.	.
8r	4f	1A	2D
4d	.	.	.
.	4e	.	.
8f	.	.	.
4e	4r	.	2E
4r	4e	.	.
=56	=56	=56	=56
8r	4d	2G	2r
4d	.	.	.
.	4c	.	.
8g	.	.	.
4d	4r	1A	1G
4r	4B	.	.
8r	4d	.	.
4g	.	.	.
.	4e	.	.
8f	.	.	.
=57	=57	=57	=57
2a	2d	1.A	1.D
1r	2e	.	.
.	8f	.	.
.	4e	.	.
.	8d	.	.
=58	=58	=58	=58
1.g	1.e	1.c	1.C
=59	=59	=59	=59
8f	4A	1.r	2F
4e	.	.	.
.	4d	.	.
8d	.	.	.
2e	2c#	.	2E
8a	2d	.	2D
4g	.	.	.
8f	.	.	.
=60	=60	=60	=60
2g	2e	2c	2C
2a	1d	1A	1D
2f	.	.	.
=61	=61	=61	=61
8f	2c	1.A	1.F
8e	.	.	.
8d	.	.	.
8e	.	.	.
2c	8f	.	.
.	8g	.	.
.	8a	.	.
.	8g	.	.
8a	4f	.	.
4g	.	.	.
.	4e	.	.
8f	.	.	.
=62	=62	=62	=62
1.g	1.d	1.B	1.G
=63	=63	=63	=63
4a	4r	2A	2D
4r	4a	.	.
8r	4g	1G	2E
4e	.	.	.
.	4e	.	.
8g	.	.	.
4c	4r	.	2C
4r	4g	.	.
=64	=64	=64	=64
8r	4d	2F	2r
4d	.	.	.
.	4f	.	.
8c	.	.	.
4e	4r	1E	1G
4r	4e	.	.
8r	4d	.	.
8d	.	.	.
8e	4B	.	.
8f#	.	.	.
=65	=65	=65	=65
1.g#	1.c#	1.G#	1.E
=66	=66	=66	=66
1.a	1.d	1.A	1.D
=67	=67	=67	=67
1.a	1.d	1.D	1.A
=68	=68	=68	=68
4d	2B	1.r	2G
4e	.	.	.
2f	8c	.	2F
.	4B	.	.
.	8A	.	.
8a	2c#	.	2E
4g	.	.	.
8f	.	.	.
=69	=69	=69	=69
1.a	2d	2A	2D
.	2e	1A	1c#
.	2f#	.	.
=70	=70	=70	=70
1.b	1.g	1.G	1.d
=71	=71	=71	=71
4a	4r	2A	2D
4r	4f	.	.
8r	4g	2c	2C
4e	.	.	.
.	4e	.	.
8g	.	.	.
4e	4r	2B	2E
4r	4e	.	.
=72	=72	=72	=72
8r	4d	2G	2r
4g	.	.	.
.	4c	.	.
8a	.	.	.
4d	4r	1B	1G
4r	4B	.	.
8r	4d	.	.
4g	.	.	.
.	4e	.	.
8f	.	.	.
=73	=73	=73	=73
2a	2d	1.A	1.D
1r	2e	.	.
.	8f	.	.
.	4e	.	.
.	8d	.	.
=74	=74	=74	=74
1.g	1.e	1.c	1.C
=75	=75	=75	=75
8f	4A	1.r	2F
4e	.	.	.
.	4d	.	.
8d	.	.	.
2e	2c#	.	2E
8a	4d	.	2D
4g	.	.	.
.	8c	.	.
8f	8d	.	.
=76	=76	=76	=76
4g	1.e	2c	2C
8f	.	.	.
8g	.	.	.
1a	.	1A	1c#
=77	=77	=77	=77
2a	2d	1.D	1.d
4f	2a	.	.
4e	.	.	.
4d	4f	.	.
4e	4e	.	.
=78	=78	=78	=78
4f#	4r	1.r	2D
4r	2d	.	.
8r	.	.	2C
4g	.	.	.
.	4e	.	.
8e	.	.	.
2d	4f	.	2D
.	8e	.	.
.	8d	.	.
=79	=79	=79	=79
4c#	4r	2A	2E
4r	2e	.	.
8e	.	1A	1F#
4g	.	.	.
.	2d	.	.
4a	.	.	.
4d	.	.	.
.	4c#	.	.
8f#	.	.	.
=80	=80	=80	=80
4g	1d	1.G	1.G
4a	.	.	.
1b	.	.	.
.	8B	.	.
.	8c	.	.
.	8d	.	.
.	8c	.	.
=81	=81	=81	=81
2a	1.d	1.A	1.D
4a	.	.	.
8g	.	.	.
4f	.	.	.
8e	.	.	.
8d	.	.	.
8e	.	.	.
=82	=82	=82	=82
4f#	2d	1.r	2F#
4a	.	.	.
2g	2e	.	2E
4a	4f	.	2D
4d	8e	.	.
.	8d	.	.
=83	=83	=83	=83
2g	2e	2c	2C
8a	2d	1B	1D
8g	.	.	.
8f	.	.	.
8e	.	.	.
4d	8g	.	.
.	8f	.	.
4f	8e	.	.
.	8d	.	.
=84	=84	=84	=84
1.e	1.c#	1.G#	1.E
=85	=85	=85	=85
4a	4r	2B	2D
4r	4d	.	.
8r	4c	2A	2F
4f	.	.	.
.	4f	.	.
8c	.	.	.
4f	4r	2c	2F
4r	4c	.	.
=86	=86	=86	=86
8r	4a	2c	2G
4d	.	.	.
.	4g	.	.
8g	.	.	.
4a	4r	1A	1A
4r	4e	.	.
8r	4d	.	.
4e	.	.	.
.	4c	.	.
8g	.	.	.
=87	=87	=87	=87
2a	2d	1.A	1.D
1r	2e	.	.
.	8f	.	.
.	4e	.	.
.	8d	.	.
=88	=88	=88	=88
1.b	1.e	1.B	1.G
=89	=89	=89	=89
4g	4d	1.r	2G
8f	4e	.	.
8e	.	.	.
4f	8d	.	2F
.	8c#	.	.
4a	8d	.	.
.	8B	.	.
8g#	4c#	.	2E
8a	.	.	.
8b	8B	.	.
8g#	8c#	.	.
=90	=90	=90	=90
2a	1.d	2A	2D
1b	.	1G	1B
=91	=91	=91	=91
2cc	2f	1.F	1.c
8cc	4a	.	.
8b	.	.	.
8cc	4g	.	.
8a	.	.	.
8a	4f	.	.
8g	.	.	.
8a	4e	.	.
8f	.	.	.
=92	=92	=92	=92
4e	4r	1.r	2A
4r	2d	.	.
8r	.	.	2G
4g	.	.	.
.	4e	.	.
8b	.	.	.
2a	8f	.	2F
.	8e	.	.
.	8d	.	.
.	8c	.	.
=93	=93	=93	=93
4d	4r	2E	2G
4r	2d	.	.
8e	.	[1G#	[1E
4d	.	.	.
.	2B	.	.
4e	.	.	.
4g#	.	.	.
.	4A	.	.
8a	.	.	.
=94	=94	=94	=94
2e	1.c#	1.G#]	1.E]
1g#	.	.	.
=95	=95	=95	=95
1.a	1.d	1.A	1.D
*-	*-	*-	*-
!!!ENC: Craig Stuart Sapp
!!!END: 2004/04/15/
